!!!ONB: MCCC : IJH0462_04 : Extracted Monophonic Melody
!!!COM: Haydn, Joseph
!!!OPR: String Quartet in G major
!!!OMV: 4
!!!SCT: Hob.III:41 ; Op.33 No.5
!!!ODT: 1781///
**kern
*thru
*k[f#]
*G:
*clefG
*M6/8
8dd
=1
8.dd
16cc#
8dd
8.dd
16cc#
8dd
=2
8.ee
16dd#
8ee
4a
8cc
=3
8.b
16cc
8dd
8.a
16b
8cc
=4
4.g
4f#
8d
=5
8.d
16e
8d
8.d
16e
8d
=6
8.cc
16dd
8cc
4b
8b
=7
8.ee
16dd#
8ee
8.gg
16ff#
8ee
=8
4.ee
4dd#
8dd
=9
8.dd
16cc#
8dd
8.ee
16dd
8ee
=10
8.cc#
16b
8cc#
4dd
8cc
=11
8.b
16cc
8dd
8.a
16b
8cc
=12
4.g
4f#
8d
=13
8.e
16f#
8e
8.e
16a
8cc
=14
8.d
16e
8d
8.d
16g
8b
=15
8.a
16b
8cc
8.g
16a
8f#
=16
4.a
4g
8dd
=17
16cc#
16dd
16ee
16dd
8dd
16cc#
16dd
16ee
16dd
8dd
=18
16dd#
16ee
16ff#
16ee
8gg
4a
8ccc
=19
16ccc
16bb
16aa
16gg
16ff#
16ee
16dd
16cc
16b
16a
16cc
16a
=20
4.g
4f#
8d
=21
16c#
16d
16e
16d
8d
16cc#
16dd
16ee
16dd
8dd
=22
16bb
16ccc
16eee
16ccc
16eee
16ccc
4bb
8bb
=23
16eee
16ddd#
16eee
16ddd#
16eee
16ddd#
8eee
8gg
8ee
=24
16dd#
16ee
16ff#
16gg#
16aa#
16bb
8b
8r
8dd
=25
16cc#
16dd
16ff#
16dd
8b
16ff#
16gg
16bb
16gg
8ee
=26
16b#
16cc#
16ee
16cc#
16a
16cc#
4dd
16cc
16ccc
=27
16ccc
16bb
16aa
16gg
16ff#
16ee
16dd
16cc
16b
16a
16cc
16a
=28
4.g
4f#
8dd
=29
16f
16e
16f
16e
16f
16e
8ee
8cc
8cc
=30
16e-
16d
16e-
16d
16e-
16d
8dd
8b
8gg
=31
16A
16B
16c
16d
16e
16f#
16g
16a
16b
16cc
16a
16f#
=32
4.a
4g
8r
=33
2.r
=34
2r
8r
8ccc
=35
16bb
16ccc
16ddd
16eee
16fff#
16ggg
16fff#
16ggg
16fff#
16ggg
16eee
16ccc
=36
4.bb
4aa
8ddd
=37
2.ddd
=38
2ddd[
8ddd]
8ccc
=39
8.bb
16aa
8gg
8.gg
16ff#
8ee
=40
4.ee
4dd#
8ff#
=41
8.ff#
16gg
8ff#
8.gg
16aa
8bb
=42
8.ee
16ff#
8gg
8ff#
8r
8ccc
=43
16bb
16ccc
16ddd]
16eee
16fff#
16ggg
16fff#
16ggg
16fff#
16ggg
16eee
16ccc
=44
4.bb
4aa
8ddd
=45
4.ddd
4.ccc#
=46
4.ccc
4bb
8B
=47
8.A
16c
8e
8.d
16g
8f#
=48
4.a
4g
8dd
=49
8.dd
16cc#
8dd
8.dd
16cc#
8dd
=50
8.ee
16dd#
8ee
4a
8cc
=51
8.b
16cc
8dd
8.a
16b
8cc
=52
4.g
4f#
8d
=53
8.d
16e
8d
8.d
16e
8d
=54
8.cc
16dd
8cc
4b
8b
=55
8.ee
16dd#
8ee
8.gg
16ff#
8ee
=56
4.ee
4dd#
8dd
=57
8.dd
16cc#
8dd
8.dd
16cc#
8dd
=58
8.ee
16dd#
8ee
4a
8cc
=59
8.b
16cc
8dd
8.a
16b
8cc
=60
4.g
4f#
8d
=61
8.d
16e
8d
8.d
16e
8d
=62
8.cc
16dd
8cc
4b
8b
=63
8.ee
16dd#
8ee
8.gg
16ff#
8ee
=64
4.ee
4dd#
8dd
=65
8.dd
16cc#
8dd
8.ee
16dd
8ee
=66
8.cc#
16b
8cc#
4dd
8cc
=67
8.b
16cc
8dd
8.a
16b
8cc
=68
4.g
4f#
8d
=69
8.e
16f#
8e
8.e
16a
8cc
=70
8.d
16e
8d
8.d
16g
8b
=71
8.a
16b
8cc
8.g
16a
8f#
=72
4.a
4g
8dd
=73
8.dd
16cc#
8dd
8.ee
16dd
8ee
=74
8.cc#
16b
8cc#
4dd
8cc
=75
8.b
16cc
8dd
8.a
16b
8cc
=76
4.g
4f#
8d
=77
8.e
16f#
8e
8.e
16a
8cc
=78
8.d
16e
8d
8.d
16g
8b
=79
8.a
16b
8cc
8.g
16a
8f#
=80
4.a
4g
8dd
=81
8dd
16b
16cc
8dd
8dd
16b
16cc
8dd
=82
8ee
16ee
16dd
8ee
4a
8cc
=83
8b
16b
16cc
8dd
8a
16a
16b
8cc
=84
4.g
4f#
8d
=85
8d
16d
16e
8d
8d
16d
16e
8d
=86
8aa
8cc
8cc
4b
8gg
=87
8a
16a
16b
8cc
8d
16d
16e
8f#
=88
4g
4.r
8gg
=89
8ff#
16ff#
16gg
8ee
8dd
16dd
16ee
8cc
=90
8b
16b
16dd
8cc#
4dd
8gg
=91
8ff#
16ff#
16gg
8ee
8dd
16dd
16ee
8cc
=92
8b
16b
16dd
8cc#
4dd
8gg
=93
8a
16a
16b
8cc
8d
16d
16e
8f#
=94
4g
4.r
8g
=95
4b
8cc
4ff
8ee
=96
4b
8cc
4dd
8g
=97
4b
8cc
4ff
8ee
=98
4b
8cc
4dd
8gg
=99
8a
16a
16b
8cc
8d
16d
16e
8f#
=100
8gg
16gg
16ff#
8gg
8ee
16ee
16dd
8ee
=101
8cc
8ccc
8ccc
8r
8ff#
8ff#
=102
8gg
16gg
16ff#
8gg
8ee
16ee
16dd
8ee
=103
8cc
8eee
8eee
8r
8ff#
8ff#
=104
4gg
8r
4cc
8r
=105
4b
8r
4ff#
8r
=106
4gg
2r
==
*-
